packages/ffe-icons/icons/open/400/sm/queue_music.svg

<svg xmlns="http://www.w3.org/2000/svg" height="20" viewBox="0 -960 960 960" width="20"><path d="M624-240q-50 0-85-35t-35-85q0-50 35-85t85-35q12 0 24.5 2.5T672-470v-261.587Q672-747 682.35-757.5T708-768h120q15.3 0 25.65 10.289 10.35 10.29 10.35 25.5Q864-717 853.65-706.5 843.3-696 828-696h-84v336q0 50-35 85t-85 35ZM180.283-408Q165-408 154.5-418.289q-10.5-10.29-10.5-25.5Q144-459 154.338-469.5 164.677-480 179.96-480h215.757Q411-480 421.5-469.711q10.5 10.29 10.5 25.5Q432-429 421.662-418.5 411.323-408 396.04-408H180.283Zm.006-144Q165-552 154.5-562.289q-10.5-10.29-10.5-25.5Q144-603 154.342-613.5q10.343-10.5 25.632-10.5h359.737Q555-624 565.5-613.711q10.5 10.29 10.5 25.5Q576-573 565.658-562.5 555.315-552 540.026-552H180.289Zm0-144Q165-696 154.5-706.289q-10.5-10.29-10.5-25.5Q144-747 154.342-757.5q10.343-10.5 25.632-10.5h359.737Q555-768 565.5-757.711q10.5 10.29 10.5 25.5Q576-717 565.658-706.5 555.315-696 540.026-696H180.289Z"/></svg>

<svg xmlns="http://www.w3.org/2000/svg" height="20" viewBox="0 -960 960 960" width="20"><path d="M624-240q-50 0-85-35t-35-85q0-50 35-85t85-35q12 0 24.5 2.5T672-470v-261.59q0-15.41 10.35-25.91T708-768h120q15.3 0 25.65 10.29Q864-747.42 864-732.21t-10.35 25.71Q843.3-696 828-696h-84v336q0 50-35 85t-85 35ZM180.28-408q-15.28 0-25.78-10.29-10.5-10.29-10.5-25.5t10.34-25.71q10.34-10.5 25.62-10.5h215.76q15.28 0 25.78 10.29 10.5 10.29 10.5 25.5t-10.34 25.71Q411.32-408 396.04-408H180.28Zm.01-144q-15.29 0-25.79-10.29t-10.5-25.5q0-15.21 10.34-25.71t25.63-10.5h359.74q15.29 0 25.79 10.29t10.5 25.5q0 15.21-10.34 25.71T540.03-552H180.29Zm0-144q-15.29 0-25.79-10.29t-10.5-25.5q0-15.21 10.34-25.71t25.63-10.5h359.74q15.29 0 25.79 10.29t10.5 25.5q0 15.21-10.34 25.71T540.03-696H180.29Z"/></svg>
